svg/24/ar-check.svg

<svg width="24" height="24" viewBox="0 0 24 24" fill="currentColor" xmlns="http://www.w3.org/2000/svg"><path d="M2 2.75C2 2.33579 2.33579 2 2.75 2H5.25C5.66421 2 6 2.33579 6 2.75C6 3.16421 5.66421 3.5 5.25 3.5H3.5V5.25C3.5 5.66421 3.16421 6 2.75 6C2.33579 6 2 5.66421 2 5.25V2.75Z"/><path d="M2 21.25V18.75C2 18.3358 2.33579 18 2.75 18C3.16421 18 3.5 18.3358 3.5 18.75L3.5 20.5H5.25C5.66421 20.5 6 20.8358 6 21.25C6 21.6642 5.66421 22 5.25 22H2.75C2.55109 22 2.36032 21.921 2.21967 21.7803C2.07902 21.6397 2 21.4489 2 21.25Z"/><path d="M22 2.75V5.25C22 5.66421 21.6642 6 21.25 6C20.8358 6 20.5 5.66421 20.5 5.25V3.5L18.75 3.5C18.3358 3.5 18 3.16421 18 2.75C18 2.33579 18.3358 2 18.75 2H21.25C21.6642 2 22 2.33579 22 2.75Z"/><path fill-rule="evenodd" clip-rule="evenodd" d="M13 4.49446C12.3812 4.1372 11.6188 4.1372 11 4.49446L6 7.38122C5.3812 7.73848 5 8.39873 5 9.11327V14.8868C5 15.6013 5.3812 16.2616 6 16.6188L11 19.5056C11.1193 19.5745 11.244 19.6301 11.3719 19.6724C11.1604 19.0758 11.0335 18.4391 11.0058 17.7769L6.75 15.3198C6.5953 15.2305 6.5 15.0654 6.5 14.8868V9.69059L11.25 12.433L11.25 15.7085C11.5366 14.7066 12.0577 13.8037 12.75 13.0629L12.75 12.433L17.5 9.69061L17.5 11C18.0163 11 18.5185 11.0602 19 11.1739V9.11327C19 8.39874 18.6188 7.73848 18 7.38122L13 4.49446ZM16.75 8.39157L12.25 5.7935C12.0953 5.70419 11.9047 5.70419 11.75 5.7935L7.25002 8.39157L12 11.134L16.75 8.39157Z"/><path fill-rule="evenodd" clip-rule="evenodd" d="M17.5 23C20.5376 23 23 20.5376 23 17.5C23 14.4624 20.5376 12 17.5 12C14.4624 12 12 14.4624 12 17.5C12 20.5376 14.4624 23 17.5 23ZM20.3536 16.3536C20.5488 16.1583 20.5488 15.8417 20.3536 15.6464C20.1583 15.4512 19.8417 15.4512 19.6464 15.6464L16.5 18.7929L14.8536 17.1464C14.6583 16.9512 14.3417 16.9512 14.1464 17.1464C13.9512 17.3417 13.9512 17.6583 14.1464 17.8536L16.1464 19.8536C16.2402 19.9473 16.3674 20 16.5 20C16.6326 20 16.7598 19.9473 16.8536 19.8536L20.3536 16.3536Z"/></svg>

<svg xmlns="http://www.w3.org/2000/svg" width="24" height="24" fill="currentColor" viewBox="0 0 24 24">
  <path d="M2 2.75A.75.75 0 0 1 2.75 2h2.5a.75.75 0 0 1 0 1.5H3.5v1.75a.75.75 0 0 1-1.5 0v-2.5Zm0 18.5v-2.5a.75.75 0 0 1 1.5 0v1.75h1.75a.75.75 0 0 1 0 1.5h-2.5a.75.75 0 0 1-.75-.75Zm20-18.5v2.5a.75.75 0 0 1-1.5 0V3.5h-1.75a.75.75 0 0 1 0-1.5h2.5a.75.75 0 0 1 .75.75Z"/>
  <path fill-rule="evenodd" d="M13 4.494a2 2 0 0 0-2 0L6 7.381a2 2 0 0 0-1 1.732v5.774a2 2 0 0 0 1 1.732l5 2.887c.12.069.244.124.372.166a6.475 6.475 0 0 1-.366-1.895L6.75 15.32a.5.5 0 0 1-.25-.433V9.69l4.75 2.742v3.276a6.49 6.49 0 0 1 1.5-2.646v-.63L17.5 9.69V11c.516 0 1.018.06 1.5.174v-2.06a2 2 0 0 0-1-1.733l-5-2.887Zm3.75 3.898-4.5-2.598a.5.5 0 0 0-.5 0l-4.5 2.598L12 11.134l4.75-2.742Z" clip-rule="evenodd"/>
  <path fill-rule="evenodd" d="M17.5 23a5.5 5.5 0 1 0 0-11 5.5 5.5 0 0 0 0 11Zm2.854-6.646a.5.5 0 0 0-.708-.708L16.5 18.793l-1.646-1.647a.5.5 0 0 0-.708.708l2 2a.5.5 0 0 0 .708 0l3.5-3.5Z" clip-rule="evenodd"/>
</svg>
